src/assets/logo/ogilvy.svg

<?xml version="1.0" encoding="UTF-8" standalone="no"?><!DOCTYPE svg PUBLIC "-//W3C//DTD SVG 1.1//EN" "http://www.w3.org/Graphics/SVG/1.1/DTD/svg11.dtd"><svg width="100%" height="100%" viewBox="0 0 540 200" version="1.1" xmlns="http://www.w3.org/2000/svg" xmlns:xlink="http://www.w3.org/1999/xlink" xml:space="preserve" xmlns:serif="http://www.serif.com/" style="fill-rule:evenodd;clip-rule:evenodd;stroke-linejoin:round;stroke-miterlimit:1.41421;"><g id="ogilvy"><path d="M158.355,81.314c0,27.445 -14.028,49.051 -34.487,49.051c-20.458,0 -35.071,-21.022 -35.071,-49.635c0,-27.445 14.028,-49.051 34.487,-49.051c20.458,0 35.071,21.022 35.071,49.635m22.797,-0.584c0,-30.949 -23.381,-55.475 -57.284,-55.475c-30.98,0 -57.868,22.19 -57.868,56.643c0,30.949 23.381,55.474 57.284,55.474c31.564,-0.584 57.868,-22.773 57.868,-56.642m50.269,11.095c0,11.095 -4.676,20.438 -12.859,20.438c-7.599,0 -13.445,-8.175 -13.445,-21.022c0,-10.511 4.677,-20.438 12.86,-20.438c7.599,0 13.444,8.175 13.444,21.022m53.192,-42.628c0,-7.591 -7.014,-13.431 -19.874,-13.431c-17.536,0 -31.564,11.679 -31.564,29.198c0,1.167 0,2.335 0,3.503c-4.092,-1.752 -8.768,-2.92 -14.613,-2.92c-14.029,0 -30.98,8.76 -30.98,26.862c0,8.759 4.676,16.35 13.444,21.022c-12.275,1.751 -19.29,8.175 -19.29,18.686c0,10.511 8.184,18.102 23.966,16.35l22.797,-2.92c11.106,-1.167 15.197,2.92 15.197,8.76c0,10.511 -9.352,18.686 -25.134,18.686c-12.275,0 -16.952,-4.088 -16.952,-10.511c0,-1.168 0,-2.336 0,-2.92c0,-3.504 -2.338,-6.423 -5.845,-6.423c-4.092,0 -7.014,2.919 -7.014,7.591c0,10.511 9.937,19.27 29.811,19.27c22.796,0 36.825,-14.599 36.825,-31.533c0,-13.431 -10.522,-20.438 -25.719,-18.686l-25.72,3.504c-8.767,1.168 -11.106,-1.752 -11.106,-5.84c0,-5.255 5.846,-9.343 25.135,-9.343l0.585,0c14.028,0 30.98,-8.759 30.98,-26.861c0,-5.84 -2.339,-11.095 -6.43,-15.767c-1.169,-2.919 -1.754,-5.839 -1.754,-9.343c0,-13.43 9.353,-21.605 18.705,-21.605c4.092,0 5.261,0.583 5.261,3.503c0,0.584 0,1.168 0,2.336c0,4.671 4.091,9.343 9.937,9.343c5.26,-1.168 9.352,-5.839 9.352,-10.511m47.931,81.168l-7.598,-0.584c-1.169,0 -1.754,-1.168 -1.754,-2.336l0,-107.445l-27.473,7.007l0,3.504l7.599,2.336c1.169,0.584 1.754,1.168 1.754,2.919l0,91.679c0,1.752 -1.169,2.92 -3.508,2.92l-7.014,0l-7.599,0c-1.753,0 -3.507,-1.168 -3.507,-2.92l0,-62.481l-27.473,7.007l0,3.503l7.599,2.336c1.169,0.584 1.754,1.168 1.754,2.92l0,46.715c0,1.168 -0.585,2.336 -1.754,2.336l-6.43,0.584l0,4.671l74.82,0l0,-4.671l0.584,0Zm141.456,-57.81l0,-4.672l-26.304,0l0,4.672l6.43,1.168c2.338,0.584 2.923,2.335 1.169,5.839l-14.029,34.453c-0.584,1.167 -1.169,1.167 -1.753,0l-13.444,-35.037c-1.169,-3.504 -0.585,-5.255 1.753,-5.839l6.43,-1.168l0,-4.672l-30.98,0l-2.922,0l-21.043,0l0,4.672l6.429,1.168c2.338,0.584 2.923,2.335 1.754,5.839l-14.029,36.204c-0.584,1.168 -1.169,1.168 -1.753,0l-15.198,-36.204c-1.169,-3.504 -0.584,-5.255 1.754,-5.839l6.429,-1.168l0,-4.672l-35.071,0l0,4.672l3.507,0.584c2.338,0.584 3.507,1.752 4.676,4.087l23.966,58.394l10.521,0l23.966,-58.394c1.169,-2.919 2.923,-4.087 5.261,-4.087l1.169,0c1.753,0 3.507,0.584 4.676,3.503l24.55,60.73l-6.43,15.767c-4.091,10.511 -7.599,12.263 -11.69,12.263c-1.754,0 -3.507,-0.584 -5.261,-0.584c-4.676,0 -7.599,3.503 -7.599,7.007c0,4.087 3.507,7.007 8.768,7.007c7.599,0 15.198,-6.423 21.628,-21.022l32.733,-78.248c1.754,-3.504 3.507,-5.255 7.014,-5.839l2.923,-0.584Z" style="fill:#a0a0a0;fill-rule:nonzero;"/></g></svg>

<?xml version="1.0" encoding="UTF-8" standalone="no"?>
<!DOCTYPE svg PUBLIC "-//W3C//DTD SVG 1.1//EN" "http://www.w3.org/Graphics/SVG/1.1/DTD/svg11.dtd">
<svg width="100%" height="100%" viewBox="0 0 540 200" version="1.1" xmlns="http://www.w3.org/2000/svg" xmlns:xlink="http://www.w3.org/1999/xlink" xml:space="preserve" xmlns:serif="http://www.serif.com/" style="fill-rule:evenodd;clip-rule:evenodd;stroke-linejoin:round;stroke-miterlimit:2;">
    <g id="ogilvy">
        <path d="M158.355,81.314C158.355,108.759 144.327,130.365 123.868,130.365C103.41,130.365 88.797,109.343 88.797,80.73C88.797,53.285 102.825,31.679 123.284,31.679C143.742,31.679 158.355,52.701 158.355,81.314M181.152,80.73C181.152,49.781 157.771,25.255 123.868,25.255C92.888,25.255 66,47.445 66,81.898C66,112.847 89.381,137.372 123.284,137.372C154.848,136.788 181.152,114.599 181.152,80.73M231.421,91.825C231.421,102.92 226.745,112.263 218.562,112.263C210.963,112.263 205.117,104.088 205.117,91.241C205.117,80.73 209.794,70.803 217.977,70.803C225.576,70.803 231.421,78.978 231.421,91.825M284.613,49.197C284.613,41.606 277.599,35.766 264.739,35.766C247.203,35.766 233.175,47.445 233.175,64.964L233.175,68.467C229.083,66.715 224.407,65.547 218.562,65.547C204.533,65.547 187.582,74.307 187.582,92.409C187.582,101.168 192.258,108.759 201.026,113.431C188.751,115.182 181.736,121.606 181.736,132.117C181.736,142.628 189.92,150.219 205.702,148.467L228.499,145.547C239.605,144.38 243.696,148.467 243.696,154.307C243.696,164.818 234.344,172.993 218.562,172.993C206.287,172.993 201.61,168.905 201.61,162.482L201.61,159.562C201.61,156.058 199.272,153.139 195.765,153.139C191.673,153.139 188.751,156.058 188.751,160.73C188.751,171.241 198.688,180 218.562,180C241.358,180 255.387,165.401 255.387,148.467C255.387,135.036 244.865,128.029 229.668,129.781L203.948,133.285C195.181,134.453 192.842,131.533 192.842,127.445C192.842,122.19 198.688,118.102 217.977,118.102L218.562,118.102C232.59,118.102 249.542,109.343 249.542,91.241C249.542,85.401 247.203,80.146 243.112,75.474C241.943,72.555 241.358,69.635 241.358,66.131C241.358,52.701 250.711,44.526 260.063,44.526C264.155,44.526 265.324,45.109 265.324,48.029L265.324,50.365C265.324,55.036 269.415,59.708 275.261,59.708C280.521,58.54 284.613,53.869 284.613,49.197M332.544,130.365L324.946,129.781C323.777,129.781 323.192,128.613 323.192,127.445L323.192,20L295.719,27.007L295.719,30.511L303.318,32.847C304.487,33.431 305.072,34.015 305.072,35.766L305.072,127.445C305.072,129.197 303.903,130.365 301.564,130.365L286.951,130.365C285.198,130.365 283.444,129.197 283.444,127.445L283.444,64.964L255.971,71.971L255.971,75.474L263.57,77.81C264.739,78.394 265.324,78.978 265.324,80.73L265.324,127.445C265.324,128.613 264.739,129.781 263.57,129.781L257.14,130.365L257.14,135.036L331.96,135.036L331.96,130.365L332.544,130.365ZM474,72.555L474,67.883L447.696,67.883L447.696,72.555L454.126,73.723C456.464,74.307 457.049,76.058 455.295,79.562L441.266,114.015C440.682,115.182 440.097,115.182 439.513,114.015L426.069,78.978C424.9,75.474 425.484,73.723 427.822,73.139L434.252,71.971L434.252,67.299L379.307,67.299L379.307,71.971L385.736,73.139C388.074,73.723 388.659,75.474 387.49,78.978L373.461,115.182C372.877,116.35 372.292,116.35 371.708,115.182L356.51,78.978C355.341,75.474 355.926,73.723 358.264,73.139L364.693,71.971L364.693,67.299L329.622,67.299L329.622,71.971L333.129,72.555C335.467,73.139 336.636,74.307 337.805,76.642L361.771,135.036L372.292,135.036L396.258,76.642C397.427,73.723 399.181,72.555 401.519,72.555L402.688,72.555C404.441,72.555 406.195,73.139 407.364,76.058L431.914,136.788L425.484,152.555C421.393,163.066 417.885,164.818 413.794,164.818C412.04,164.818 410.287,164.234 408.533,164.234C403.857,164.234 400.934,167.737 400.934,171.241C400.934,175.328 404.441,178.248 409.702,178.248C417.301,178.248 424.9,171.825 431.33,157.226L464.063,78.978C465.817,75.474 467.57,73.723 471.077,73.139L474,72.555Z" style="fill:rgb(208,208,208);fill-rule:nonzero;"/>
    </g>
</svg>
